X:14
T:Coming Down From Denver
M:2/4
L:1/16
Z:jason
B:Bob Walters, 1950
N: Modification of Lardner's Reel, pre-1864
K:A
EF | A2Ac BAGB | Aceg a2ga | bgeg aecA | dcBA GBEG |
A2Ac BAGB | Aceg a2ga | bgeg aecA | dcBG A2 :|
|: A,2 | A,ECE A,ECE | A,B,CE ABcA | EBGB EBGB | EFGB egbg |
agae faec | defg a2ga | bgeg aecA | dcBG A2 :|

